X: 11833
T: WAP AT THE WIDOW, MY LADDIE
O: From "Johnson's Musical Miscellany."
Q: "Lively."
%R: jig
B: W. Hamilton "Universal Tune-Book" Vol. 1 Glasgow 1844 p.183 #3
S: http://imslp.org/wiki/Hamilton's_Universal_Tune-Book_(Various)
Z: 2016 John Chambers <jc:trillian.mit.edu>
M: 6/8
L: 1/8
K: G
%%slurgraces yes
%%graceslurs yes
% - - - - - - - - - - - - - - - - - - - - - - - - -
G |\
BAB (G/A/B)G | ADB {B}A2G | BAB GAG | BAB g2g |\
f>ed (ed)B | dgB A2G | gfe deG | B3 d2 :|
|: d |\
gab abg | adb a2g | gab abg | f>ed g2g |\
f>ed ede | gdB (Aa)f | g(e/f/g) deG | B3 d2 :|
% - - - - - - - - - - - - - - - - - - - - - - - - -

%%sep 1 1 500
%%sep 1 1 500

